assets/rsar.svg

<?xml version="1.0" encoding="utf-8"?>
<!-- Generator: Adobe Illustrator 16.0.0, SVG Export Plug-In . SVG Version: 6.00 Build 0)  -->
<!DOCTYPE svg PUBLIC "-//W3C//DTD SVG 1.1//EN" "http://www.w3.org/Graphics/SVG/1.1/DTD/svg11.dtd">
<svg version="1.1" id="Layer_1" xmlns="http://www.w3.org/2000/svg" xmlns:xlink="http://www.w3.org/1999/xlink" x="0px" y="0px"
	 width="93.962px" height="77.833px" viewBox="0 0 93.962 77.833" enable-background="new 0 0 93.962 77.833" xml:space="preserve">
<g>
	<path d="M9.225,74.629c-0.064-1.634-0.401-2.082-1.585-2.306v-0.032c1.281-0.177,1.745-0.577,1.745-2.547
		c0-1.682-0.176-2.226-0.608-2.658c-0.336-0.336-0.833-0.464-1.569-0.464H0.4v1.521h1.505v8.167H0.4v1.522h4.756V76.31H3.619v-3.362
		h2.37c0.561,0,0.833,0.048,1.089,0.305c0.208,0.207,0.32,0.496,0.352,1.393c0.064,2.21,0.192,2.643,0.433,2.883
		c0.192,0.191,0.432,0.305,1.105,0.305h1.617v-1.554H9.304C9.272,75.783,9.24,75.125,9.225,74.629L9.225,74.629z M3.619,71.506
		v-3.363h3.027c0.464,0,0.625,0.049,0.705,0.128c0.144,0.145,0.208,0.417,0.208,1.569c0,1.153-0.064,1.394-0.208,1.538
		c-0.08,0.08-0.24,0.128-0.705,0.128H3.619L3.619,71.506z M26.887,77.833V76.31H25.35l0.592-1.985c1.025,0,2.915-0.016,3.892-0.016
		l0.593,2.001h-1.538v1.522h4.644V76.31h-1.217l-2.899-9.191c-0.144-0.449-0.288-0.545-0.769-0.545h-1.345
		c-0.48,0-0.625,0.096-0.769,0.545l-2.898,9.191h-1.217v1.522H26.887L26.887,77.833z M27.768,68.143h0.24l1.394,4.725h-3.043
		L27.768,68.143L27.768,68.143z M54.991,74.629c-0.063-1.634-0.4-2.082-1.585-2.306v-0.032c1.281-0.177,1.745-0.577,1.745-2.547
		c0-1.682-0.176-2.226-0.608-2.658c-0.336-0.336-0.833-0.464-1.569-0.464h-6.807v1.521h1.506v8.167h-1.506v1.522h4.757V76.31h-1.537
		v-3.362h2.37c0.561,0,0.832,0.048,1.089,0.305c0.208,0.207,0.32,0.496,0.352,1.393c0.064,2.21,0.192,2.643,0.433,2.883
		c0.192,0.191,0.433,0.305,1.105,0.305h1.617v-1.554h-1.281C55.039,75.783,55.007,75.125,54.991,74.629L54.991,74.629z
		 M49.386,71.506v-3.363h3.026c0.465,0,0.624,0.049,0.704,0.128c0.145,0.145,0.209,0.417,0.209,1.569
		c0,1.153-0.064,1.394-0.209,1.538c-0.08,0.08-0.239,0.128-0.704,0.128H49.386L49.386,71.506z M70.251,68.143v8.167h-1.506v1.522
		h8.904v-3.619h-1.682v2.097h-4.003v-3.555h3.011v-1.474h-3.011v-3.139h3.875V70h1.682v-3.378h-8.776v1.521H70.251L70.251,68.143z"
		/>
	<path d="M4.468,55.641V54.12H2.931l0.593-1.986c1.025,0,2.915-0.016,3.891-0.016l0.593,2.002H6.47v1.521h4.645V54.12H9.897
		l-2.898-9.192c-0.145-0.448-0.289-0.545-0.769-0.545H4.884c-0.48,0-0.625,0.097-0.769,0.545L1.217,54.12H0v1.521H4.468
		L4.468,55.641z M5.349,45.952h0.24l1.394,4.725H3.939L5.349,45.952L5.349,45.952z M42.821,52.438
		c-0.064-1.634-0.4-2.082-1.586-2.307V50.1c1.281-0.177,1.746-0.577,1.746-2.547c0-1.682-0.177-2.226-0.608-2.658
		c-0.337-0.336-0.833-0.465-1.57-0.465h-6.806v1.521h1.505v8.168h-1.505v1.521h4.756V54.12h-1.537v-3.363h2.37
		c0.561,0,0.833,0.048,1.089,0.305c0.208,0.208,0.32,0.496,0.352,1.393c0.064,2.21,0.192,2.643,0.433,2.883
		c0.192,0.192,0.433,0.305,1.104,0.305h1.618v-1.554h-1.281C42.869,53.59,42.836,52.934,42.821,52.438L42.821,52.438z
		 M37.216,49.315v-3.363h3.026c0.464,0,0.625,0.049,0.705,0.129c0.145,0.144,0.208,0.416,0.208,1.569
		c0,1.152-0.064,1.393-0.208,1.537c-0.08,0.08-0.24,0.128-0.705,0.128H37.216L37.216,49.315z M70.251,45.952v8.168h-1.506v1.521
		h8.904v-3.62h-1.682v2.099h-4.003v-3.556h3.011V49.09h-3.011v-3.139h3.875v1.858h1.682v-3.38h-8.776v1.521H70.251L70.251,45.952z"
		/>
	<path d="M9.144,30.198c0-1.521-0.128-2.13-0.56-2.562c-0.336-0.336-0.833-0.448-1.602-0.528l-3.363-0.32
		c-0.448-0.048-0.608-0.064-0.736-0.192c-0.176-0.176-0.192-0.417-0.192-1.201c0-0.849,0.032-1.265,0.176-1.409
		c0.128-0.128,0.272-0.144,0.721-0.144h2.674c0.48,0,0.608,0.048,0.705,0.144c0.128,0.128,0.176,0.384,0.208,1.698h1.778
		c-0.064-2.002-0.176-2.515-0.641-2.979c-0.353-0.352-0.865-0.464-1.746-0.464H3.267c-0.849,0-1.361,0.176-1.698,0.513
		c-0.512,0.512-0.656,1.217-0.656,2.658c0,1.474,0.08,2.066,0.528,2.514c0.336,0.336,0.817,0.464,1.633,0.544l3.363,0.32
		c0.448,0.048,0.608,0.08,0.736,0.208c0.176,0.176,0.192,0.4,0.192,1.217c0,0.945-0.032,1.345-0.176,1.49
		c-0.128,0.128-0.272,0.144-0.736,0.144H3.459c-0.48,0-0.608-0.048-0.705-0.144c-0.128-0.128-0.176-0.385-0.208-1.778H0.769
		c0.032,2.05,0.176,2.594,0.641,3.059c0.353,0.353,0.865,0.464,1.746,0.464h3.604c0.896,0,1.393-0.176,1.729-0.512
		C9,32.424,9.144,31.752,9.144,30.198L9.144,30.198z M22.311,31.928v-8.167h2.322v2.178h1.681v-3.699h-9.721v3.699h1.682v-2.178
		h2.322v8.167h-1.585v1.521h4.884v-1.521H22.311L22.311,31.928z M36.935,33.449v-1.521h-1.537l0.592-1.986
		c1.025,0,2.915-0.016,3.892-0.016l0.592,2.002h-1.537v1.521h4.645v-1.521h-1.218l-2.898-9.192
		c-0.144-0.448-0.288-0.544-0.769-0.544h-1.345c-0.48,0-0.625,0.096-0.769,0.544l-2.898,9.192h-1.217v1.521H36.935L36.935,33.449z
		 M37.816,23.761h0.24l1.394,4.724h-3.043L37.816,23.761L37.816,23.761z M59.983,30.247c-0.063-1.633-0.4-2.082-1.585-2.306v-0.032
		c1.281-0.176,1.745-0.577,1.745-2.546c0-1.682-0.176-2.226-0.608-2.659c-0.336-0.336-0.833-0.464-1.569-0.464h-6.807v1.521h1.506
		v8.167h-1.506v1.521h4.757v-1.521h-1.537v-3.363h2.37c0.561,0,0.832,0.048,1.089,0.304c0.208,0.208,0.32,0.497,0.353,1.394
		c0.063,2.21,0.191,2.642,0.432,2.882c0.192,0.192,0.433,0.304,1.105,0.304h1.617v-1.553h-1.281
		C60.031,31.399,60,30.743,59.983,30.247L59.983,30.247z M54.378,27.124v-3.363h3.026c0.465,0,0.624,0.048,0.704,0.128
		c0.145,0.145,0.209,0.417,0.209,1.57c0,1.153-0.064,1.393-0.209,1.537c-0.08,0.08-0.239,0.128-0.704,0.128H54.378L54.378,27.124z
		 M77.425,30.198c0-1.521-0.128-2.13-0.56-2.562c-0.337-0.336-0.833-0.448-1.602-0.528l-3.363-0.32
		c-0.448-0.048-0.608-0.064-0.736-0.192c-0.177-0.176-0.192-0.417-0.192-1.201c0-0.849,0.032-1.265,0.176-1.409
		c0.128-0.128,0.272-0.144,0.721-0.144h2.674c0.48,0,0.609,0.048,0.705,0.144c0.128,0.128,0.177,0.384,0.209,1.698h1.776
		c-0.063-2.002-0.175-2.515-0.641-2.979c-0.352-0.352-0.864-0.464-1.744-0.464h-3.3c-0.849,0-1.361,0.176-1.697,0.513
		c-0.513,0.512-0.657,1.217-0.657,2.658c0,1.474,0.081,2.066,0.529,2.514c0.336,0.336,0.816,0.464,1.634,0.544l3.362,0.32
		c0.448,0.048,0.609,0.08,0.737,0.208c0.176,0.176,0.191,0.4,0.191,1.217c0,0.945-0.031,1.345-0.176,1.49
		c-0.129,0.128-0.272,0.144-0.737,0.144h-2.994c-0.48,0-0.608-0.048-0.704-0.144c-0.129-0.128-0.177-0.385-0.209-1.778H69.05
		c0.032,2.05,0.176,2.594,0.641,3.059c0.353,0.353,0.865,0.464,1.745,0.464h3.604c0.897,0,1.394-0.176,1.729-0.512
		C77.282,32.424,77.425,31.752,77.425,30.198L77.425,30.198z"/>
	<path d="M9.225,8.055C9.16,6.422,8.824,5.974,7.639,5.75V5.717C8.92,5.541,9.384,5.141,9.384,3.171
		c0-1.682-0.176-2.226-0.608-2.658C8.439,0.176,7.943,0.048,7.207,0.048H0.4v1.521h1.505v8.167H0.4v1.521h4.756V9.737H3.619V6.374
		h2.37c0.561,0,0.833,0.048,1.089,0.305c0.208,0.208,0.32,0.496,0.352,1.393c0.064,2.21,0.192,2.643,0.433,2.883
		c0.192,0.192,0.432,0.304,1.105,0.304h1.617V9.705H9.304C9.272,9.208,9.24,8.552,9.225,8.055L9.225,8.055z M3.619,4.933V1.569
		h3.027c0.464,0,0.625,0.048,0.705,0.128c0.144,0.144,0.208,0.416,0.208,1.569c0,1.153-0.064,1.393-0.208,1.537
		c-0.08,0.08-0.24,0.128-0.705,0.128H3.619L3.619,4.933z M24.811,1.569v8.167h-1.505v1.521h8.904V7.639h-1.681v2.098h-4.004V6.182
		h3.011V4.708h-3.011V1.569h3.875v1.858h1.682V0.048h-8.776v1.521H24.811L24.811,1.569z M49.685,11.258V9.737h-1.537l0.592-1.986
		c1.025,0,2.915-0.016,3.892-0.016l0.593,2.002h-1.537v1.521h4.644V9.737h-1.217l-2.898-9.192C52.071,0.096,51.927,0,51.447,0
		h-1.346c-0.48,0-0.624,0.096-0.769,0.544l-2.898,9.192h-1.217v1.521H49.685L49.685,11.258z M50.566,1.569h0.24l1.393,4.724h-3.042
		L50.566,1.569L50.566,1.569z M70.972,9.737h-1.505v1.521h8.52V7.559h-1.683v2.178h-3.619V1.569h1.586V0.048h-4.804v1.521h1.505
		V9.737L70.972,9.737z"/>
	<polygon fill="#002D73" points="87.645,63.318 88.938,67.107 92.72,67.107 89.738,69.471 90.829,73.208 87.645,71.004 
		84.461,73.208 85.552,69.471 82.541,67.107 86.378,67.107 87.645,63.318 	"/>
	<path fill="#C3002F" d="M91.585,74.257l-3.94-2.727l-3.94,2.727l1.351-4.627l-3.768-2.955h4.78l1.573-4.709l1.606,4.709h4.715
		l-3.729,2.954L91.585,74.257z M83.792,67.54l2.258,1.772l-0.831,2.846l2.427-1.679l2.426,1.679l-0.83-2.845l2.237-1.773h-2.849
		l-0.979-2.87l-0.959,2.87H83.792z"/>
</g>
</svg>

<?xml version="1.0" encoding="UTF-8"?>
<svg width="94px" height="78px" viewBox="0 0 94 78" version="1.1" xmlns="http://www.w3.org/2000/svg" xmlns:xlink="http://www.w3.org/1999/xlink">
    <!-- Generator: Sketch 42 (36781) - http://www.bohemiancoding.com/sketch -->
    <title>rsar</title>
    <desc>Created with Sketch.</desc>
    <defs></defs>
    <g id="Page-1" stroke="none" stroke-width="1" fill="none" fill-rule="evenodd">
        <g id="rsar" fill-rule="nonzero" fill="#FFFFFF">
            <g id="Group">
                <path d="M9.225,74.629 C9.161,72.995 8.824,72.547 7.64,72.323 L7.64,72.291 C8.921,72.114 9.385,71.714 9.385,69.744 C9.385,68.062 9.209,67.518 8.777,67.086 C8.441,66.75 7.944,66.622 7.208,66.622 L0.4,66.622 L0.4,68.143 L1.905,68.143 L1.905,76.31 L0.4,76.31 L0.4,77.832 L5.156,77.832 L5.156,76.31 L3.619,76.31 L3.619,72.948 L5.989,72.948 C6.55,72.948 6.822,72.996 7.078,73.253 C7.286,73.46 7.398,73.749 7.43,74.646 C7.494,76.856 7.622,77.289 7.863,77.529 C8.055,77.72 8.295,77.834 8.968,77.834 L10.585,77.834 L10.585,76.28 L9.304,76.28 C9.272,75.783 9.24,75.125 9.225,74.629 L9.225,74.629 Z M3.619,71.506 L3.619,68.143 L6.646,68.143 C7.11,68.143 7.271,68.192 7.351,68.271 C7.495,68.416 7.559,68.688 7.559,69.84 C7.559,70.993 7.495,71.234 7.351,71.378 C7.271,71.458 7.111,71.506 6.646,71.506 L3.619,71.506 L3.619,71.506 Z M26.887,77.833 L26.887,76.31 L25.35,76.31 L25.942,74.325 C26.967,74.325 28.857,74.309 29.834,74.309 L30.427,76.31 L28.889,76.31 L28.889,77.832 L33.533,77.832 L33.533,76.31 L32.316,76.31 L29.417,67.119 C29.273,66.67 29.129,66.574 28.648,66.574 L27.303,66.574 C26.823,66.574 26.678,66.67 26.534,67.119 L23.636,76.31 L22.419,76.31 L22.419,77.832 L26.887,77.832 L26.887,77.833 Z M27.768,68.143 L28.008,68.143 L29.402,72.868 L26.359,72.868 L27.768,68.143 L27.768,68.143 Z M54.991,74.629 C54.928,72.995 54.591,72.547 53.406,72.323 L53.406,72.291 C54.687,72.114 55.151,71.714 55.151,69.744 C55.151,68.062 54.975,67.518 54.543,67.086 C54.207,66.75 53.71,66.622 52.974,66.622 L46.167,66.622 L46.167,68.143 L47.673,68.143 L47.673,76.31 L46.167,76.31 L46.167,77.832 L50.924,77.832 L50.924,76.31 L49.387,76.31 L49.387,72.948 L51.757,72.948 C52.318,72.948 52.589,72.996 52.846,73.253 C53.054,73.46 53.166,73.749 53.198,74.646 C53.262,76.856 53.39,77.289 53.631,77.529 C53.823,77.72 54.064,77.834 54.736,77.834 L56.353,77.834 L56.353,76.28 L55.072,76.28 C55.039,75.783 55.007,75.125 54.991,74.629 L54.991,74.629 Z M49.386,71.506 L49.386,68.143 L52.412,68.143 C52.877,68.143 53.036,68.192 53.116,68.271 C53.261,68.416 53.325,68.688 53.325,69.84 C53.325,70.993 53.261,71.234 53.116,71.378 C53.036,71.458 52.877,71.506 52.412,71.506 L49.386,71.506 L49.386,71.506 Z M70.251,68.143 L70.251,76.31 L68.745,76.31 L68.745,77.832 L77.649,77.832 L77.649,74.213 L75.967,74.213 L75.967,76.31 L71.964,76.31 L71.964,72.755 L74.975,72.755 L74.975,71.281 L71.964,71.281 L71.964,68.142 L75.839,68.142 L75.839,70 L77.521,70 L77.521,66.622 L68.745,66.622 L68.745,68.143 L70.251,68.143 L70.251,68.143 Z" id="Shape"></path>
                <path d="M4.468,55.641 L4.468,54.12 L2.931,54.12 L3.524,52.134 C4.549,52.134 6.439,52.118 7.415,52.118 L8.008,54.12 L6.47,54.12 L6.47,55.641 L11.115,55.641 L11.115,54.12 L9.897,54.12 L6.999,44.928 C6.854,44.48 6.71,44.383 6.23,44.383 L4.884,44.383 C4.404,44.383 4.259,44.48 4.115,44.928 L1.217,54.12 L0,54.12 L0,55.641 L4.468,55.641 L4.468,55.641 Z M5.349,45.952 L5.589,45.952 L6.983,50.677 L3.939,50.677 L5.349,45.952 L5.349,45.952 Z M42.821,52.438 C42.757,50.804 42.421,50.356 41.235,50.131 L41.235,50.1 C42.516,49.923 42.981,49.523 42.981,47.553 C42.981,45.871 42.804,45.327 42.373,44.895 C42.036,44.559 41.54,44.43 40.803,44.43 L33.997,44.43 L33.997,45.951 L35.502,45.951 L35.502,54.119 L33.997,54.119 L33.997,55.64 L38.753,55.64 L38.753,54.12 L37.216,54.12 L37.216,50.757 L39.586,50.757 C40.147,50.757 40.419,50.805 40.675,51.062 C40.883,51.27 40.995,51.558 41.027,52.455 C41.091,54.665 41.219,55.098 41.46,55.338 C41.652,55.53 41.893,55.643 42.564,55.643 L44.182,55.643 L44.182,54.089 L42.901,54.089 C42.869,53.59 42.836,52.934 42.821,52.438 L42.821,52.438 Z M37.216,49.315 L37.216,45.952 L40.242,45.952 C40.706,45.952 40.867,46.001 40.947,46.081 C41.092,46.225 41.155,46.497 41.155,47.65 C41.155,48.802 41.091,49.043 40.947,49.187 C40.867,49.267 40.707,49.315 40.242,49.315 L37.216,49.315 L37.216,49.315 Z M70.251,45.952 L70.251,54.12 L68.745,54.12 L68.745,55.641 L77.649,55.641 L77.649,52.021 L75.967,52.021 L75.967,54.12 L71.964,54.12 L71.964,50.564 L74.975,50.564 L74.975,49.09 L71.964,49.09 L71.964,45.951 L75.839,45.951 L75.839,47.809 L77.521,47.809 L77.521,44.429 L68.745,44.429 L68.745,45.95 L70.251,45.95 L70.251,45.952 Z" id="Shape"></path>
                <path d="M9.144,30.198 C9.144,28.677 9.016,28.068 8.584,27.636 C8.248,27.3 7.751,27.188 6.982,27.108 L3.619,26.788 C3.171,26.74 3.011,26.724 2.883,26.596 C2.707,26.42 2.691,26.179 2.691,25.395 C2.691,24.546 2.723,24.13 2.867,23.986 C2.995,23.858 3.139,23.842 3.588,23.842 L6.262,23.842 C6.742,23.842 6.87,23.89 6.967,23.986 C7.095,24.114 7.143,24.37 7.175,25.684 L8.953,25.684 C8.889,23.682 8.777,23.169 8.312,22.705 C7.959,22.353 7.447,22.241 6.566,22.241 L3.267,22.241 C2.418,22.241 1.906,22.417 1.569,22.754 C1.057,23.266 0.913,23.971 0.913,25.412 C0.913,26.886 0.993,27.478 1.441,27.926 C1.777,28.262 2.258,28.39 3.074,28.47 L6.437,28.79 C6.885,28.838 7.045,28.87 7.173,28.998 C7.349,29.174 7.365,29.398 7.365,30.215 C7.365,31.16 7.333,31.56 7.189,31.705 C7.061,31.833 6.917,31.849 6.453,31.849 L3.459,31.849 C2.979,31.849 2.851,31.801 2.754,31.705 C2.626,31.577 2.578,31.32 2.546,29.927 L0.769,29.927 C0.801,31.977 0.945,32.521 1.41,32.986 C1.763,33.339 2.275,33.45 3.156,33.45 L6.76,33.45 C7.656,33.45 8.153,33.274 8.489,32.938 C9,32.424 9.144,31.752 9.144,30.198 L9.144,30.198 Z M22.311,31.928 L22.311,23.761 L24.633,23.761 L24.633,25.939 L26.314,25.939 L26.314,22.24 L16.593,22.24 L16.593,25.939 L18.275,25.939 L18.275,23.761 L20.597,23.761 L20.597,31.928 L19.012,31.928 L19.012,33.449 L23.896,33.449 L23.896,31.928 L22.311,31.928 L22.311,31.928 Z M36.935,33.449 L36.935,31.928 L35.398,31.928 L35.99,29.942 C37.015,29.942 38.905,29.926 39.882,29.926 L40.474,31.928 L38.937,31.928 L38.937,33.449 L43.582,33.449 L43.582,31.928 L42.364,31.928 L39.466,22.736 C39.322,22.288 39.178,22.192 38.697,22.192 L37.352,22.192 C36.872,22.192 36.727,22.288 36.583,22.736 L33.685,31.928 L32.468,31.928 L32.468,33.449 L36.935,33.449 L36.935,33.449 Z M37.816,23.761 L38.056,23.761 L39.45,28.485 L36.407,28.485 L37.816,23.761 L37.816,23.761 Z M59.983,30.247 C59.92,28.614 59.583,28.165 58.398,27.941 L58.398,27.909 C59.679,27.733 60.143,27.332 60.143,25.363 C60.143,23.681 59.967,23.137 59.535,22.704 C59.199,22.368 58.702,22.24 57.966,22.24 L51.159,22.24 L51.159,23.761 L52.665,23.761 L52.665,31.928 L51.159,31.928 L51.159,33.449 L55.916,33.449 L55.916,31.928 L54.379,31.928 L54.379,28.565 L56.749,28.565 C57.31,28.565 57.581,28.613 57.838,28.869 C58.046,29.077 58.158,29.366 58.191,30.263 C58.254,32.473 58.382,32.905 58.623,33.145 C58.815,33.337 59.056,33.449 59.728,33.449 L61.345,33.449 L61.345,31.896 L60.064,31.896 C60.031,31.399 60,30.743 59.983,30.247 L59.983,30.247 Z M54.378,27.124 L54.378,23.761 L57.404,23.761 C57.869,23.761 58.028,23.809 58.108,23.889 C58.253,24.034 58.317,24.306 58.317,25.459 C58.317,26.612 58.253,26.852 58.108,26.996 C58.028,27.076 57.869,27.124 57.404,27.124 L54.378,27.124 L54.378,27.124 Z M77.425,30.198 C77.425,28.677 77.297,28.068 76.865,27.636 C76.528,27.3 76.032,27.188 75.263,27.108 L71.9,26.788 C71.452,26.74 71.292,26.724 71.164,26.596 C70.987,26.42 70.972,26.179 70.972,25.395 C70.972,24.546 71.004,24.13 71.148,23.986 C71.276,23.858 71.42,23.842 71.869,23.842 L74.543,23.842 C75.023,23.842 75.152,23.89 75.248,23.986 C75.376,24.114 75.425,24.37 75.457,25.684 L77.233,25.684 C77.17,23.682 77.058,23.169 76.592,22.705 C76.24,22.353 75.728,22.241 74.848,22.241 L71.548,22.241 C70.699,22.241 70.187,22.417 69.851,22.754 C69.338,23.266 69.194,23.971 69.194,25.412 C69.194,26.886 69.275,27.478 69.723,27.926 C70.059,28.262 70.539,28.39 71.357,28.47 L74.719,28.79 C75.167,28.838 75.328,28.87 75.456,28.998 C75.632,29.174 75.647,29.398 75.647,30.215 C75.647,31.16 75.616,31.56 75.471,31.705 C75.342,31.833 75.199,31.849 74.734,31.849 L71.74,31.849 C71.26,31.849 71.132,31.801 71.036,31.705 C70.907,31.577 70.859,31.32 70.827,29.927 L69.05,29.927 C69.082,31.977 69.226,32.521 69.691,32.986 C70.044,33.339 70.556,33.45 71.436,33.45 L75.04,33.45 C75.937,33.45 76.434,33.274 76.769,32.938 C77.282,32.424 77.425,31.752 77.425,30.198 L77.425,30.198 Z" id="Shape"></path>
                <path d="M9.225,8.055 C9.16,6.422 8.824,5.974 7.639,5.75 L7.639,5.717 C8.92,5.541 9.384,5.141 9.384,3.171 C9.384,1.489 9.208,0.945 8.776,0.513 C8.439,0.176 7.943,0.048 7.207,0.048 L0.4,0.048 L0.4,1.569 L1.905,1.569 L1.905,9.736 L0.4,9.736 L0.4,11.257 L5.156,11.257 L5.156,9.737 L3.619,9.737 L3.619,6.374 L5.989,6.374 C6.55,6.374 6.822,6.422 7.078,6.679 C7.286,6.887 7.398,7.175 7.43,8.072 C7.494,10.282 7.622,10.715 7.863,10.955 C8.055,11.147 8.295,11.259 8.968,11.259 L10.585,11.259 L10.585,9.705 L9.304,9.705 C9.272,9.208 9.24,8.552 9.225,8.055 L9.225,8.055 Z M3.619,4.933 L3.619,1.569 L6.646,1.569 C7.11,1.569 7.271,1.617 7.351,1.697 C7.495,1.841 7.559,2.113 7.559,3.266 C7.559,4.419 7.495,4.659 7.351,4.803 C7.271,4.883 7.111,4.931 6.646,4.931 L3.619,4.931 L3.619,4.933 Z M24.811,1.569 L24.811,9.736 L23.306,9.736 L23.306,11.257 L32.21,11.257 L32.21,7.639 L30.529,7.639 L30.529,9.737 L26.525,9.737 L26.525,6.182 L29.536,6.182 L29.536,4.708 L26.525,4.708 L26.525,1.569 L30.4,1.569 L30.4,3.427 L32.082,3.427 L32.082,0.048 L23.306,0.048 L23.306,1.569 L24.811,1.569 L24.811,1.569 Z M49.685,11.258 L49.685,9.737 L48.148,9.737 L48.74,7.751 C49.765,7.751 51.655,7.735 52.632,7.735 L53.225,9.737 L51.688,9.737 L51.688,11.258 L56.332,11.258 L56.332,9.737 L55.115,9.737 L52.217,0.545 C52.071,0.096 51.927,0 51.447,0 L50.101,0 C49.621,0 49.477,0.096 49.332,0.544 L46.434,9.736 L45.217,9.736 L45.217,11.257 L49.685,11.257 L49.685,11.258 Z M50.566,1.569 L50.806,1.569 L52.199,6.293 L49.157,6.293 L50.566,1.569 L50.566,1.569 Z M70.972,9.737 L69.467,9.737 L69.467,11.258 L77.987,11.258 L77.987,7.559 L76.304,7.559 L76.304,9.737 L72.685,9.737 L72.685,1.569 L74.271,1.569 L74.271,0.048 L69.467,0.048 L69.467,1.569 L70.972,1.569 L70.972,9.737 L70.972,9.737 Z" id="Shape"></path>
                <path d="M91.585,74.257 L87.645,71.53 L83.705,74.257 L85.056,69.63 L81.288,66.675 L86.068,66.675 L87.641,61.966 L89.247,66.675 L93.962,66.675 L90.233,69.629 L91.585,74.257 Z M83.792,67.54 L86.05,69.312 L85.219,72.158 L87.646,70.479 L90.072,72.158 L89.242,69.313 L91.479,67.54 L88.63,67.54 L87.651,64.67 L86.692,67.54 L83.792,67.54 L83.792,67.54 Z" id="Shape"></path>
            </g>
        </g>
    </g>
</svg>
